icons/themes/default/hashtag.svg

<svg viewBox="0 0 16 16" fill="none" xmlns="http://www.w3.org/2000/svg">
<path fill-rule="evenodd" clip-rule="evenodd" d="M6.88186 1.95783C7.1533 2.0086 7.33218 2.2698 7.28141 2.54124L6.8104 5.05931H10.3131L10.8185 2.35738C10.8692 2.08594 11.1304 1.90706 11.4019 1.95783C11.6733 2.0086 11.8522 2.2698 11.8014 2.54124L11.3304 5.05931H13.5699C13.8461 5.05931 14.0699 5.28317 14.0699 5.55931C14.0699 5.83545 13.8461 6.05931 13.5699 6.05931H11.1434L10.4139 9.95932H12.68C12.9561 9.95932 13.18 10.1832 13.18 10.4593C13.18 10.7355 12.9561 10.9593 12.68 10.9593H10.2268L9.72143 13.6612C9.67065 13.9327 9.40945 14.1116 9.13802 14.0608C8.86658 14.01 8.6877 13.7488 8.73847 13.4774L9.20948 10.9593H5.7068L5.20141 13.6612C5.15063 13.9327 4.88943 14.1116 4.618 14.0608C4.34657 14.01 4.16768 13.7488 4.21845 13.4774L4.68946 10.9593H2.44995C2.17381 10.9593 1.94995 10.7355 1.94995 10.4593C1.94995 10.1832 2.17381 9.95932 2.44995 9.95932H4.87651L5.60601 6.05931H3.33994C3.06379 6.05931 2.83994 5.83545 2.83994 5.55931C2.83994 5.28317 3.06379 5.05931 3.33994 5.05931H5.79306L6.29845 2.35738C6.34923 2.08594 6.61043 1.90706 6.88186 1.95783ZM9.39653 9.95932L10.126 6.05931H6.62335L5.89385 9.95932H9.39653Z" fill="currentColor"/>
</svg>

<svg xmlns="http://www.w3.org/2000/svg" fill="none" viewBox="0 0 16 16">
  <path fill="currentColor" fill-rule="evenodd" d="M6.882 1.958a.5.5 0 0 1 .4.583L6.81 5.06h3.503l.505-2.702a.5.5 0 1 1 .983.184l-.47 2.518h2.239a.5.5 0 1 1 0 1h-2.427l-.73 3.9h2.267a.5.5 0 0 1 0 1h-2.453l-.506 2.702a.5.5 0 1 1-.983-.184l.471-2.518H5.707L5.2 13.661a.5.5 0 1 1-.983-.184l.471-2.518H2.45a.5.5 0 1 1 0-1h2.427l.729-3.9H3.34a.5.5 0 1 1 0-1h2.453l.505-2.702a.5.5 0 0 1 .584-.4Zm2.515 8.001.729-3.9H6.623l-.73 3.9h3.504Z" clip-rule="evenodd"/>
</svg>
